public/chainhor.svg

<svg width="236" height="50" viewBox="0 0 236 50" fill="none" xmlns="http://www.w3.org/2000/svg">
<path d="M10.2268 26.7341C10.7336 28.066 11.8466 29.2432 13.3941 30.0841C14.9416 30.925 16.8378 31.3829 18.7902 31.3873H25.3774C27.3299 31.3829 29.226 30.925 30.7736 30.0841C32.3211 29.2432 33.4341 28.066 33.9409 26.7341H36.5757C37.0825 28.066 38.1955 29.2432 39.743 30.0841C41.2906 30.925 43.1867 31.3829 45.1392 31.3873H51.7264C53.6788 31.3829 55.575 30.925 57.1225 30.0841C58.67 29.2432 59.783 28.066 60.2898 26.7341L68.1945 26.7341L68.1945 23.4536L60.2898 23.4536C59.7937 22.1175 58.6836 20.9356 57.1337 20.0935C55.5837 19.2513 53.6818 18.7965 51.7264 18.8005H45.1392C43.1867 18.8048 41.2906 19.2628 39.743 20.1037C38.1955 20.9446 37.0825 22.1217 36.5757 23.4536H33.9409C33.4447 22.1175 32.3346 20.9356 30.7847 20.0935C29.2348 19.2513 27.3329 18.7965 25.3774 18.8005H18.7902C16.8378 18.8048 14.9416 19.2628 13.3941 20.1037C11.8466 20.9446 10.7336 22.1217 10.2268 23.4536L2.32211 23.4536L2.32211 26.7341L10.2268 26.7341ZM45.1392 22.081L51.7264 22.081C52.434 22.0832 53.1297 22.2098 53.7507 22.4495C54.3718 22.6891 54.8985 23.0342 55.2835 23.4536L51.7264 23.4536L51.7264 26.7341L55.2835 26.7341C54.8985 27.1535 54.3718 27.4987 53.7507 27.7383C53.1297 27.9779 52.434 28.1046 51.7264 28.1068L45.1392 28.1068C44.4307 28.1076 43.7334 27.9822 43.1117 27.7423C42.49 27.5024 41.9639 27.1556 41.582 26.7341H45.1392V23.4536H41.582C41.967 23.0342 42.4938 22.6891 43.1148 22.4495C43.7358 22.2098 44.4315 22.0832 45.1392 22.081ZM18.7902 22.081L25.3774 22.081C26.0851 22.0832 26.7808 22.2098 27.4018 22.4495C28.0228 22.6891 28.5496 23.0342 28.9346 23.4536H25.3774V26.7341H28.9346C28.5496 27.1535 28.0228 27.4987 27.4018 27.7383C26.7808 27.9779 26.0851 28.1046 25.3774 28.1068L18.7902 28.1068C18.0818 28.1076 17.3845 27.9822 16.7628 27.7423C16.141 27.5024 15.615 27.1556 15.2331 26.7341L18.7902 26.7341L18.7902 23.4536L15.2331 23.4536C15.6181 23.0342 16.1448 22.6891 16.7659 22.4495C17.3869 22.2098 18.0826 22.0832 18.7902 22.081Z" fill="black"/>
<path d="M64.7102 26.5464C65.217 27.8783 66.33 29.0554 67.8775 29.8963C69.425 30.7372 71.3212 31.1952 73.2736 31.1996H79.8608C81.8133 31.1952 83.7094 30.7372 85.257 29.8963C86.8045 29.0554 87.9175 27.8783 88.4243 26.5464H91.0591C91.5659 27.8783 92.6789 29.0554 94.2264 29.8963C95.774 30.7372 97.6701 31.1952 99.6226 31.1996H106.21C108.162 31.1952 110.058 30.7372 111.606 29.8963C113.153 29.0554 114.266 27.8783 114.773 26.5464L122.678 26.5464L122.678 23.2659L114.773 23.2659C114.277 21.9298 113.167 20.7479 111.617 19.9057C110.067 19.0635 108.165 18.6087 106.21 18.6127H99.6226C97.6701 18.6171 95.774 19.075 94.2264 19.9159C92.6789 20.7568 91.5659 21.934 91.0591 23.2659H88.4243C87.9281 21.9298 86.818 20.7479 85.2681 19.9057C83.7182 19.0635 81.8163 18.6087 79.8608 18.6127H73.2736C71.3212 18.6171 69.425 19.075 67.8775 19.9159C66.33 20.7568 65.217 21.934 64.7102 23.2659L56.8055 23.2659L56.8055 26.5464L64.7102 26.5464ZM99.6226 21.8932L106.21 21.8932C106.917 21.8954 107.613 22.0221 108.234 22.2617C108.855 22.5014 109.382 22.8465 109.767 23.2659L106.21 23.2659L106.21 26.5464L109.767 26.5464C109.382 26.9658 108.855 27.3109 108.234 27.5506C107.613 27.7902 106.917 27.9169 106.21 27.9191L99.6226 27.9191C98.9141 27.9198 98.2168 27.7945 97.5951 27.5546C96.9734 27.3146 96.4473 26.9679 96.0654 26.5464H99.6226V23.2659H96.0654C96.4504 22.8465 96.9772 22.5014 97.5982 22.2617C98.2192 22.0221 98.9149 21.8954 99.6226 21.8932ZM73.2736 21.8932L79.8608 21.8932C80.5685 21.8954 81.2642 22.0221 81.8852 22.2617C82.5062 22.5014 83.033 22.8465 83.418 23.2659H79.8608V26.5464H83.418C83.033 26.9658 82.5062 27.3109 81.8852 27.5506C81.2642 27.7902 80.5685 27.9169 79.8608 27.9191L73.2736 27.9191C72.5652 27.9198 71.8679 27.7945 71.2462 27.5546C70.6244 27.3146 70.0984 26.9679 69.7165 26.5464L73.2736 26.5464L73.2736 23.2659L69.7165 23.2659C70.1015 22.8465 70.6282 22.5014 71.2493 22.2617C71.8703 22.0221 72.566 21.8954 73.2736 21.8932Z" fill="black"/>
<path d="M121.227 26.7341C121.734 28.066 122.847 29.2432 124.394 30.0841C125.942 30.925 127.838 31.3829 129.79 31.3873H136.377C138.33 31.3829 140.226 30.925 141.774 30.0841C143.321 29.2432 144.434 28.066 144.941 26.7341H147.576C148.083 28.066 149.196 29.2432 150.743 30.0841C152.291 30.925 154.187 31.3829 156.139 31.3873H162.726C164.679 31.3829 166.575 30.925 168.123 30.0841C169.67 29.2432 170.783 28.066 171.29 26.7341L179.194 26.7341L179.194 23.4536L171.29 23.4536C170.794 22.1175 169.684 20.9356 168.134 20.0935C166.584 19.2513 164.682 18.7965 162.726 18.8005H156.139C154.187 18.8048 152.291 19.2628 150.743 20.1037C149.196 20.9446 148.083 22.1217 147.576 23.4536H144.941C144.445 22.1175 143.335 20.9356 141.785 20.0935C140.235 19.2513 138.333 18.7965 136.377 18.8005H129.79C127.838 18.8048 125.942 19.2628 124.394 20.1037C122.847 20.9446 121.734 22.1217 121.227 23.4536L113.322 23.4536L113.322 26.7341L121.227 26.7341ZM156.139 22.081L162.726 22.081C163.434 22.0832 164.13 22.2098 164.751 22.4495C165.372 22.6891 165.899 23.0342 166.284 23.4536L162.726 23.4536L162.726 26.7341L166.284 26.7341C165.899 27.1535 165.372 27.4987 164.751 27.7383C164.13 27.9779 163.434 28.1046 162.726 28.1068L156.139 28.1068C155.431 28.1076 154.733 27.9822 154.112 27.7423C153.49 27.5024 152.964 27.1556 152.582 26.7341H156.139V23.4536H152.582C152.967 23.0342 153.494 22.6891 154.115 22.4495C154.736 22.2098 155.432 22.0832 156.139 22.081ZM129.79 22.081L136.377 22.081C137.085 22.0832 137.781 22.2098 138.402 22.4495C139.023 22.6891 139.55 23.0342 139.935 23.4536H136.377V26.7341H139.935C139.55 27.1535 139.023 27.4987 138.402 27.7383C137.781 27.9779 137.085 28.1046 136.377 28.1068L129.79 28.1068C129.082 28.1076 128.384 27.9822 127.763 27.7423C127.141 27.5024 126.615 27.1556 126.233 26.7341L129.79 26.7341L129.79 23.4536L126.233 23.4536C126.618 23.0342 127.145 22.6891 127.766 22.4495C128.387 22.2098 129.083 22.0832 129.79 22.081Z" fill="black"/>
<path d="M175.71 26.5464C176.217 27.8783 177.33 29.0554 178.877 29.8963C180.425 30.7372 182.321 31.1952 184.274 31.1996H190.861C192.813 31.1952 194.709 30.7372 196.257 29.8963C197.804 29.0554 198.917 27.8783 199.424 26.5464H202.059C202.566 27.8783 203.679 29.0554 205.226 29.8963C206.774 30.7372 208.67 31.1952 210.623 31.1996H217.21C219.162 31.1952 221.058 30.7372 222.606 29.8963C224.153 29.0554 225.266 27.8783 225.773 26.5464L233.678 26.5464L233.678 23.2659L225.773 23.2659C225.277 21.9298 224.167 20.7479 222.617 19.9057C221.067 19.0635 219.165 18.6087 217.21 18.6127H210.623C208.67 18.6171 206.774 19.075 205.226 19.9159C203.679 20.7568 202.566 21.934 202.059 23.2659H199.424C198.928 21.9298 197.818 20.7479 196.268 19.9057C194.718 19.0635 192.816 18.6087 190.861 18.6127H184.274C182.321 18.6171 180.425 19.075 178.877 19.9159C177.33 20.7568 176.217 21.934 175.71 23.2659L167.806 23.2659L167.806 26.5464L175.71 26.5464ZM210.623 21.8932L217.21 21.8932C217.917 21.8954 218.613 22.0221 219.234 22.2617C219.855 22.5014 220.382 22.8465 220.767 23.2659L217.21 23.2659L217.21 26.5464L220.767 26.5464C220.382 26.9658 219.855 27.3109 219.234 27.5506C218.613 27.7902 217.917 27.9169 217.21 27.9191L210.623 27.9191C209.914 27.9198 209.217 27.7945 208.595 27.5546C207.973 27.3146 207.447 26.9679 207.065 26.5464H210.623V23.2659H207.065C207.45 22.8465 207.977 22.5014 208.598 22.2617C209.219 22.0221 209.915 21.8954 210.623 21.8932ZM184.274 21.8932L190.861 21.8932C191.568 21.8954 192.264 22.0221 192.885 22.2617C193.506 22.5014 194.033 22.8465 194.418 23.2659H190.861V26.5464H194.418C194.033 26.9658 193.506 27.3109 192.885 27.5506C192.264 27.7902 191.568 27.9169 190.861 27.9191L184.274 27.9191C183.565 27.9198 182.868 27.7945 182.246 27.5546C181.624 27.3146 181.098 26.9679 180.716 26.5464L184.274 26.5464L184.274 23.2659L180.716 23.2659C181.101 22.8465 181.628 22.5014 182.249 22.2617C182.87 22.0221 183.566 21.8954 184.274 21.8932Z" fill="black"/>
</svg>

<svg xmlns="http://www.w3.org/2000/svg" width="236" height="50" fill="#000" xmlns:v="https://vecta.io/nano"><path d="M10.227 26.734c.507 1.332 1.62 2.509 3.167 3.35s3.444 1.299 5.396 1.303h6.587c1.952-.004 3.849-.462 5.396-1.303s2.661-2.018 3.167-3.35h2.635c.507 1.332 1.62 2.509 3.167 3.35s3.444 1.299 5.396 1.303h6.587c1.952-.004 3.849-.462 5.396-1.303s2.66-2.018 3.167-3.35h7.905v-3.28H60.29c-.496-1.336-1.606-2.518-3.156-3.36s-3.452-1.297-5.407-1.293h-6.587c-1.953.004-3.849.462-5.396 1.303s-2.66 2.018-3.167 3.35h-2.635c-.496-1.336-1.606-2.518-3.156-3.36s-3.452-1.297-5.407-1.293H18.79c-1.952.004-3.849.462-5.396 1.303s-2.661 2.018-3.167 3.35H2.322v3.281h7.905zm34.912-4.653h6.587a5.71 5.71 0 0 1 2.024.369c.621.24 1.148.585 1.533 1.004h-3.557v3.281h3.557c-.385.419-.912.765-1.533 1.004a5.71 5.71 0 0 1-2.024.369h-6.587c-.709.001-1.406-.125-2.028-.364s-1.148-.587-1.53-1.008h3.557v-3.28h-3.557c.385-.419.912-.765 1.533-1.004a5.71 5.71 0 0 1 2.024-.369zm-26.349 0h6.587a5.71 5.71 0 0 1 2.024.369c.621.24 1.148.585 1.533 1.004h-3.557v3.281h3.557c-.385.419-.912.765-1.533 1.004s-1.317.366-2.024.369H18.79c-.708.001-1.406-.125-2.027-.364s-1.148-.587-1.53-1.008h3.557v-3.28h-3.557c.385-.419.912-.765 1.533-1.004a5.71 5.71 0 0 1 2.024-.369z"/><path d="M64.71 26.546c.507 1.332 1.62 2.509 3.167 3.35s3.444 1.299 5.396 1.303h6.587c1.953-.004 3.849-.462 5.396-1.303s2.66-2.018 3.167-3.35h2.635c.507 1.332 1.62 2.509 3.167 3.35s3.444 1.299 5.396 1.303h6.587c1.952-.004 3.848-.462 5.396-1.303s2.66-2.018 3.167-3.35h7.905v-3.28h-7.905c-.496-1.336-1.606-2.518-3.156-3.36s-3.452-1.297-5.407-1.293h-6.587c-1.953.004-3.849.462-5.396 1.303s-2.66 2.018-3.167 3.35h-2.635c-.496-1.336-1.606-2.518-3.156-3.36s-3.452-1.297-5.407-1.293h-6.587c-1.952.004-3.849.462-5.396 1.303s-2.66 2.018-3.167 3.35h-7.905v3.281h7.905zm34.912-4.653h6.587c.707.002 1.403.129 2.024.369s1.148.585 1.533 1.004h-3.557v3.281h3.557c-.385.419-.912.765-1.533 1.004s-1.317.366-2.024.369h-6.587c-.709.001-1.406-.125-2.028-.364s-1.148-.587-1.53-1.008h3.557v-3.28h-3.557c.385-.419.912-.764 1.533-1.004s1.317-.366 2.024-.369zm-26.349 0h6.587c.708.002 1.403.129 2.024.369s1.148.585 1.533 1.004h-3.557v3.281h3.557c-.385.419-.912.765-1.533 1.004s-1.317.366-2.024.369h-6.587c-.708.001-1.406-.125-2.027-.364s-1.148-.587-1.53-1.008h3.557v-3.28h-3.557c.385-.419.912-.764 1.533-1.004a5.71 5.71 0 0 1 2.024-.369z"/><path d="M121.227 26.734c.507 1.332 1.62 2.509 3.167 3.35s3.444 1.299 5.396 1.303h6.587c1.953-.004 3.849-.462 5.397-1.303s2.66-2.018 3.167-3.35h2.635c.507 1.332 1.62 2.509 3.167 3.35s3.444 1.299 5.396 1.303h6.587c1.953-.004 3.849-.462 5.397-1.303s2.66-2.018 3.167-3.35h7.904v-3.28h-7.904c-.496-1.336-1.606-2.518-3.156-3.36s-3.452-1.297-5.408-1.293h-6.587c-1.952.004-3.848.462-5.396 1.303s-2.66 2.018-3.167 3.35h-2.635c-.496-1.336-1.606-2.518-3.156-3.36s-3.452-1.297-5.408-1.293h-6.587c-1.952.004-3.848.462-5.396 1.303s-2.66 2.018-3.167 3.35h-7.905v3.281h7.905zm34.912-4.653h6.587a5.71 5.71 0 0 1 2.025.369c.621.24 1.148.585 1.533 1.004h-3.558v3.281h3.558c-.385.419-.912.765-1.533 1.004s-1.317.366-2.025.369h-6.587a5.65 5.65 0 0 1-2.027-.364c-.622-.24-1.148-.587-1.53-1.008h3.557v-3.28h-3.557c.385-.419.912-.765 1.533-1.004a5.71 5.71 0 0 1 2.024-.369zm-26.349 0h6.587a5.71 5.71 0 0 1 2.025.369c.621.24 1.148.585 1.533 1.004h-3.558v3.281h3.558c-.385.419-.912.765-1.533 1.004s-1.317.366-2.025.369h-6.587a5.65 5.65 0 0 1-2.027-.364c-.622-.24-1.148-.587-1.53-1.008h3.557v-3.28h-3.557c.385-.419.912-.765 1.533-1.004a5.71 5.71 0 0 1 2.024-.369z"/><path d="M175.71 26.546c.507 1.332 1.62 2.509 3.167 3.35s3.444 1.299 5.397 1.303h6.587c1.952-.004 3.848-.462 5.396-1.303s2.66-2.018 3.167-3.35h2.635c.507 1.332 1.62 2.509 3.167 3.35s3.444 1.299 5.397 1.303h6.587c1.952-.004 3.848-.462 5.396-1.303s2.66-2.018 3.167-3.35h7.905v-3.28h-7.905c-.496-1.336-1.606-2.518-3.156-3.36s-3.452-1.297-5.407-1.293h-6.587c-1.953.004-3.849.462-5.397 1.303s-2.66 2.018-3.167 3.35h-2.635c-.496-1.336-1.606-2.518-3.156-3.36s-3.452-1.297-5.407-1.293h-6.587c-1.953.004-3.849.462-5.397 1.303s-2.66 2.018-3.167 3.35h-7.904v3.281h7.904zm34.913-4.653h6.587c.707.002 1.403.129 2.024.369s1.148.585 1.533 1.004h-3.557v3.281h3.557c-.385.419-.912.765-1.533 1.004s-1.317.366-2.024.369h-6.587c-.709.001-1.406-.125-2.028-.364s-1.148-.587-1.53-1.008h3.558v-3.28h-3.558c.385-.419.912-.764 1.533-1.004s1.317-.366 2.025-.369zm-26.349 0h6.587c.707.002 1.403.129 2.024.369s1.148.585 1.533 1.004h-3.557v3.281h3.557c-.385.419-.912.765-1.533 1.004s-1.317.366-2.024.369h-6.587c-.709.001-1.406-.125-2.028-.364s-1.148-.587-1.53-1.008h3.558v-3.28h-3.558c.385-.419.912-.764 1.533-1.004s1.317-.366 2.025-.369z"/></svg>
